assets/02_eyes/Eye 7.svg

<svg width="400" height="180" viewBox="0 0 400 180" fill="none" xmlns="http://www.w3.org/2000/svg">
<g clip-path="url(#clip0_70_846)">
<path d="M111 45C111 94.1548 150.845 134 200 134C249.155 134 289 94.1548 289 45H111Z" fill="white"/>
<path d="M200 134C224.577 134 244.5 114.077 244.5 89.5C244.5 64.9233 224.577 45 200 45C175.423 45 155.5 64.9233 155.5 89.5C155.5 114.077 175.423 134 200 134Z" fill="#FF71EE"/>
<path d="M185.766 68.543C191.828 68.1706 196.876 71.5841 200.021 76.5286C202.565 72.5358 206.517 69.3085 211.337 68.6464C221.702 67.219 228.074 75.2046 227.598 85.0314C226.956 97.8166 216.012 104.54 207.323 112.236C204.903 114.388 202.544 116.622 200.145 118.815L199.752 118.712C194.724 113.643 189.035 109.278 183.76 104.478C176.312 97.6925 171.657 92.1688 172.464 81.3489C172.981 74.315 178.836 68.9568 185.766 68.5223V68.543Z" fill="white"/>
</g>
<defs>
<clipPath id="clip0_70_846">
<rect width="178" height="89" fill="white" transform="translate(111 45)"/>
</clipPath>
</defs>
</svg>

<svg xmlns="http://www.w3.org/2000/svg" width="400" height="180" fill="none" viewBox="0 0 400 180"><g clip-path="url(#Eye_7_svg_clip0_70_846)"><path fill="#fff" d="M111 45c0 49.155 39.845 89 89 89s89-39.845 89-89z"/><path fill="#ff71ee" d="M200 134c24.577 0 44.5-19.923 44.5-44.5S224.577 45 200 45s-44.5 19.923-44.5 44.5S175.423 134 200 134"/><path fill="#fff" d="M185.766 68.543c6.062-.372 11.11 3.041 14.255 7.986 2.544-3.993 6.496-7.22 11.316-7.883 10.365-1.427 16.737 6.559 16.261 16.385-.642 12.786-11.586 19.509-20.275 27.205-2.42 2.152-4.779 4.386-7.178 6.579l-.393-.103c-5.028-5.069-10.717-9.434-15.992-14.234-7.448-6.785-12.103-12.31-11.296-23.13.517-7.033 6.372-12.391 13.302-12.826z"/></g><defs><clipPath id="Eye_7_svg_clip0_70_846"><rect width="178" height="89" fill="#fff" transform="translate(111 45)"/></clipPath></defs></svg>
